X:42
T:Copla de Fiesta
C:Trad. Castejon de Monegros
A:Huesca, Espaa
O:Monegros, Huesca
Z:L. M. Escalona
M:3/8
L:1/8
Q:1/8=144
K:G
zE>F/|GB>B/|AG2|BGB|AG2|
zE>F/|GB>B/|AG2|AA>G/|FE2:|
